X:1
T:Charterhouse, 11.10.11.10
T:Charterhouse, 11.10.11.10
T:David Evans,1927
T:Public Domain Courtesy of the Cyber Hymnal™)
C:David Evans,1927
Z:Public Domain
Z:Courtesy of the Cyber Hymnal™)
%%score ( 1 2 ) ( 3 4 )
L:1/8
Q:1/4=115
M:4/4
K:F
V:1 treble 
V:2 treble 
V:3 bass 
V:4 bass 
V:1
 z2 C2 [A,CF]2 [CEG]2 | [CFA]6 [CF]2 | B2 A2 G2 [EA]2 | F4 [B,D]4- | [B,D]2 F2 E2 [A,D]2 | %5
 C2 C2 [CF]2 [CFA]2 | c4 [F-A]4 | G8- | [CG]2 [DG]2 [DG]2 [_EG]2 | B4 B4 | %10
 [CD]2 [B,E]2 [CF]2 [CEG]2 | [CFA]4 c4- ([C-F]2 | [CGc]2) E2 F2 [EG]2 | %13
 [CFA]2 [CGc]2 [DFd]2 [Gc]2 | (A2 F2) (G2 [EA]2) | [CF]8 |] %16
V:2
 x8 | x8 | F6 x2 | x8 | x2 B,4 x2 | A,4 x4 | (G2 E2) x4 | F4 E2 D2 | x8 | (F2 G2) (F2 C2) | x8 | %11
 x4 [C-E]2 x4 | x2 C6 | x8 | F6 x2 | x8 |] %16
V:3
 z2 C,2 [A,,F,]2 [C,G,]2 | [F,A,]6 [E,A,]2 | [D,B,]2 [A,C]2 [B,,G,D]2 [C,A,C]2 | [F,A,]4 F,4- | %4
 [G,,F,]2 D,2 E,2 [A,,F,]2 | [B,,E,]4 [A,,F,]2 [F,A,]2 | C6 [=B,,D-]2 | D4 ([E,C]2 [F,=B,]2 | %8
 [E,C]2) [G,B,]2 [F,B,]2 [_E,B,]2 | ([D,B,]2 [_E,D]2) ([F,C]2 [A,,F,]2) | %10
 [B,,A,]2 [G,,G,]2 [A,,F,]2 [C,E,]2 | [F,,F,]2 [A,,A,C]2 ([G,,G,B,]2 [F,,F,A,]2 x2 | %12
 [E,,E,G,]2) [B,,C,-B,]2 [A,,C,-A,]2 [G,,C,G,]2 | [F,,F,A,]2 [E,,E,G,]2 [D,,D,A,]2 [E,,E,G,C]2 | %14
 [F,C]4 ([D,B,]2 [C,C]2) | [F,,A,]8 |] %16
V:4
 F,,8 | F,,2 F,,2 F,2 x2 | x8 | D,2 C,2 B,,2 A,,2 | x2 G,,4 x2 | x8 | (E,2 C,2) F,2 x2 | %7
 C,2 D,2 x4 | x8 | x8 | x8 | x10 | x8 | x8 | (F,,2 A,,2) x4 | x8 |] %16

